Papirus-nordic/64x64/places/folder-nordic-java.svg

<svg xmlns="http://www.w3.org/2000/svg" width="64" height="64"><rect width="50" height="32" x="7" y="24" rx="2.5" ry="2.5" opacity=".2"/><path d="M7 44.5C7 45.885 8.115 47 9.5 47h45c1.385 0 2.5-1.115 2.5-2.5v-27c0-1.385-1.115-2.5-2.5-2.5H29v-2.5c0-1.385-1.115-2.5-2.5-2.5h-17A2.495 2.495 0 0 0 7 12.5" fill="#6c9b9a"/><rect width="50" height="32" x="7" y="22" rx="2.5" ry="2.5" opacity=".2"/><rect width="44" height="20" x="10" y="18" rx="2.5" ry="2.5" fill="#e4e4e4"/><rect width="50" height="32" x="7" y="23" rx="2.5" ry="2.5" fill="#82abaa"/><path d="M9.5 10A2.495 2.495 0 0 0 7 12.5v1C7 12.115 8.115 11 9.5 11h17c1.385 0 2.5 1.115 2.5 2.5v-1c0-1.385-1.115-2.5-2.5-2.5zM29 15v1h25.5c1.39 0 2.5 1.115 2.5 2.5v-1c0-1.385-1.11-2.5-2.5-2.5z" opacity=".1" fill="#fff"/><path d="M29 27s1.154.706.34 2.562C28.108 32.36 30.477 33 30.477 33s-.753-.656.25-2.965C31.835 27.477 29 27 29 27zm4.199 3.855s-2.097.932-.746 3.477c.893 1.687-.098 2.523-.098 2.523s2.534-.835 1.312-3.164c-1.098-2.105-.468-2.836-.468-2.836zM26.671 31s-1.502 1.599-.015 3.562c.983 1.307.34 2.438.34 2.438s1.861-1.651.515-3.457c-1.215-1.63-.84-2.543-.84-2.543zm.325 6H22l3 12h11l.679-1.969c.333.083.677.141 1.035.141C40.08 47.171 42 45.651 42 43.284a4.275 4.275 0 0 0-3.252-4.144l.395-2.14-12.148-.001zm11.41 3.519l.047.008c.762.205 1.048 1.605.64 3.129-.399 1.486-1.314 2.546-2.07 2.399z" fill="#4e6766"/></svg>

<svg xmlns="http://www.w3.org/2000/svg" width="64" height="64" version="1">
 <rect style="opacity:0.2" width="56" height="36" x="4" y="22" rx="2.8" ry="2.8"/>
 <path style="fill:#6c9b9a" d="M 4,46.2 C 4,47.751 5.2488,49 6.8,49 H 57.2 C 58.751,49 60,47.751 60,46.2 V 15.8 C 60,14.249 58.751,13 57.2,13 H 32 C 27.8,13 26.4,7 22.2,7 H 6.8 C 5.2488,7 4,8.2488 4,9.8"/>
 <rect style="opacity:0.2" width="56" height="36" x="4" y="20" rx="2.8" ry="2.8"/>
 <rect style="fill:#eceff4" width="48" height="22" x="8" y="16" rx="2.8" ry="2.8"/>
 <rect style="fill:#82abaa" width="56" height="36" x="4" y="21" rx="2.8" ry="2.8"/>
 <path style="opacity:0.1;fill:#ffffff" d="M 6.8008,7 C 5.2496,7 4,8.2496 4,9.8008 V 10.801 C 4,9.2496 5.2496,8 6.8008,8 H 22.199 C 26.399,8 27.8,14 32,14 H 57.199 C 58.75,14 60,15.25 60,16.801 V 15.801 C 60,14.25 58.75,13 57.199,13 H 32 C 27.8,13 26.399,7 22.199,7 Z"/>
 <path style="fill:#4e6766" d="M 29,27 C 29,27 30.154,27.706 29.34,29.562 28.108,32.36 30.477,33 30.477,33 30.477,33 29.724,32.344 30.727,30.035 31.835,27.477 29,27 29,27 Z M 33.199,30.855 C 33.199,30.855 31.102,31.787 32.453,34.332 33.346,36.019 32.355,36.855 32.355,36.855 32.355,36.855 34.889,36.02 33.667,33.691 32.569,31.586 33.199,30.855 33.199,30.855 Z M 26.671,31 C 26.671,31 25.169,32.599 26.656,34.562 27.639,35.869 26.996,37 26.996,37 26.996,37 28.857,35.349 27.511,33.543 26.296,31.913 26.671,31 26.671,31 Z M 26.996,37 H 22 L 25,49 H 36 L 36.679,47.031 C 37.012,47.114 37.356,47.172 37.714,47.172 40.08,47.171 42,45.651 42,43.284 42,41.276 40.613,39.604 38.748,39.14 L 39.143,37 26.995,36.999 Z M 38.406,40.519 C 38.422,40.521 38.437,40.524 38.453,40.527 39.215,40.732 39.501,42.132 39.093,43.656 38.694,45.142 37.779,46.202 37.023,46.055 Z"/>
</svg>
